X: 9906
T: Desmond Hickey
R: jig
M: 6/8
K: Dmajor
ag|:ffA fgf|eeA efe|ddA BBF|GAB ede|
ffA fgf|eeA efe|ddA BBF|1 GBd e2e:|2 GAB EGA||
|:~B3 Bcd|AFD DFA|~B3 Bcd|eag f2d|
~B3 Bcd|AFD DFA|~B3 Bcd|1 efe dGA:|2 efe d3||

